X:1
T:Title
%%score { ( 1 3 ) | 2 }
L:1/8
M:4/4
K:E
V:1 treble nm="Grand Piano"
V:3 treble 
V:2 bass 
V:1
 z4 z2[Q:1/4=84] GA | B<G FE G2 FE |[M:3/4] C<E EC E2 |[M:1/4] EF | %4
[M:4/4] G<[FA] [GB][Ac] [GB]<G F>E | [DF]6 GA | B<G FE G2 FE | C<E EF G2 G[FA] | %8
 [GB]<[Ge] dc B<G [DF]>[B,E] |[M:3/4] [B,E]6 |[M:1/4] [DF][EG] |[M:4/4] z A3- A2 z2 | %12
 [GB]B- [GB-]>[FB-] [EB]2 BB | ^A<A GF e<e d>c |[M:3/4] [DB]6 |[M:1/4] [Dc][Fd] | %16
[M:4/4] [Ee][Ge] [GB]>[FA] G2 FE | C[CE] E>[DF] [EG]2 [EG][FA] | [GB]<[Ge] dc B<G [DF]>E | %19
[M:3/4] E6 |] %20
V:2
 z4 z2 [E,E][E,F,E] | [E,G,E]<[E,B,E] [E,A,C][E,G,B,] [E,B,E]2 [E,A,C][E,G,B,] | %2
[M:3/4] A,<[A,C] [A,C]A, [A,C]2 |[M:1/4] [G,B,][F,B,D] | %4
[M:4/4] [E,B,E]<[E,B,] [E,E][E,E] [E,E]<[E,B,E] [F,A,E]>[F,A,C] | [B,,B,]6 [E,E][E,F,E] | %6
 [E,G,E]<[E,B,E] [E,A,C][E,G,B,] [E,B,E]2 [E,A,C][E,G,B,] | %7
 A,<[A,C] [A,C][A,^B,D] [E,=B,E]2 [E,B,E][E,E] | %8
 [E,E]<[E,B,][K:treble] [G,^B,F][A,CE][K:bass] [G,E]<[E,=B,E] [B,,A,]>[E,G,] |[M:3/4] [E,G,]6 | %10
[M:1/4] [B,,B,][B,,B,] |[M:4/4] [B,,B,][B,,B,] [B,,B,]>[B,,B,] [B,,B,]2 [E,B,E][E,B,] | %12
 [E,E][E,E] [E,B,]>[E,A,] [E,G,]2 [E,G,E][E,G,E] | %13
 [F,CE]<[F,CE] [F,B,E][F,^A,E] [F,A,F]<[F,A,F] [F,B,F]>[F,E] |[M:3/4] [B,,F,]6 | %15
[M:1/4] [B,,A,][B,,A,] |[M:4/4] [E,G,][E,B,] [E,E]>[E,E] [E,B,E]2 [E,A,B,][E,G,B,] | %17
 [A,,A,][A,,A,] [A,,A,]>[A,,A,] [E,B,]2 [E,B,][E,E] | %18
 [E,E]<[E,B,][K:treble] [G,^B,F][A,CE][K:bass] [G,E]<[E,=B,E] [B,,A,]>[E,G,B,] | %19
[M:3/4] [E,G,B,]6 |] %20
V:3
 x8 | x8 |[M:3/4] x6 |[M:1/4] x2 |[M:4/4] x8 | x8 | x8 | x8 | x8 |[M:3/4] x6 |[M:1/4] x2 | %11
[M:4/4] [FA]F F>E D2 G[FA] | z G z2 z4 | x8 |[M:3/4] x6 |[M:1/4] x2 |[M:4/4] x8 | x8 | x8 | %19
[M:3/4] x6 |] %20

